dist/img/sheet_icon.svg

<svg width="42" height="42" viewBox="0 0 42 42" fill="none" xmlns="http://www.w3.org/2000/svg">
<path d="M21 11.8125C21 11.4644 20.8617 11.1306 20.6156 10.8844C20.3694 10.6383 20.0356 10.5 19.6875 10.5C19.3394 10.5 19.0056 10.6383 18.7594 10.8844C18.5133 11.1306 18.375 11.4644 18.375 11.8125V30.1875C18.375 30.5356 18.5133 30.8694 18.7594 31.1156C19.0056 31.3617 19.3394 31.5 19.6875 31.5C20.0356 31.5 20.3694 31.3617 20.6156 31.1156C20.8617 30.8694 21 30.5356 21 30.1875V11.8125ZM6.5625 13.125C6.2144 13.125 5.88056 13.2633 5.63442 13.5094C5.38828 13.7556 5.25 14.0894 5.25 14.4375C5.25 14.7856 5.38828 15.1194 5.63442 15.3656C5.88056 15.6117 6.2144 15.75 6.5625 15.75H14.4375C14.7856 15.75 15.1194 15.6117 15.3656 15.3656C15.6117 15.1194 15.75 14.7856 15.75 14.4375C15.75 14.0894 15.6117 13.7556 15.3656 13.5094C15.1194 13.2633 14.7856 13.125 14.4375 13.125H6.5625ZM6.5625 18.375C6.2144 18.375 5.88056 18.5133 5.63442 18.7594C5.38828 19.0056 5.25 19.3394 5.25 19.6875C5.25 20.0356 5.38828 20.3694 5.63442 20.6156C5.88056 20.8617 6.2144 21 6.5625 21H14.4375C14.7856 21 15.1194 20.8617 15.3656 20.6156C15.6117 20.3694 15.75 20.0356 15.75 19.6875C15.75 19.3394 15.6117 19.0056 15.3656 18.7594C15.1194 18.5133 14.7856 18.375 14.4375 18.375H6.5625ZM6.5625 23.625C6.2144 23.625 5.88056 23.7633 5.63442 24.0094C5.38828 24.2556 5.25 24.5894 5.25 24.9375C5.25 25.2856 5.38828 25.6194 5.63442 25.8656C5.88056 26.1117 6.2144 26.25 6.5625 26.25H14.4375C14.7856 26.25 15.1194 26.1117 15.3656 25.8656C15.6117 25.6194 15.75 25.2856 15.75 24.9375C15.75 24.5894 15.6117 24.2556 15.3656 24.0094C15.1194 23.7633 14.7856 23.625 14.4375 23.625H6.5625Z" fill="#C5528B"/>
<path fill-rule="evenodd" clip-rule="evenodd" d="M0 10.5C0 9.10761 0.553123 7.77226 1.53769 6.78769C2.52226 5.80312 3.85761 5.25 5.25 5.25H36.75C38.1424 5.25 39.4777 5.80312 40.4623 6.78769C41.4469 7.77226 42 9.10761 42 10.5V31.5C42 32.8924 41.4469 34.2277 40.4623 35.2123C39.4777 36.1969 38.1424 36.75 36.75 36.75H5.25C3.85761 36.75 2.52226 36.1969 1.53769 35.2123C0.553123 34.2277 0 32.8924 0 31.5V10.5ZM5.25 7.875C4.55381 7.875 3.88613 8.15156 3.39384 8.64384C2.90156 9.13613 2.625 9.80381 2.625 10.5V31.5C2.625 32.1962 2.90156 32.8639 3.39384 33.3562C3.88613 33.8484 4.55381 34.125 5.25 34.125H36.75C37.4462 34.125 38.1139 33.8484 38.6062 33.3562C39.0984 32.8639 39.375 32.1962 39.375 31.5V10.5C39.375 9.80381 39.0984 9.13613 38.6062 8.64384C38.1139 8.15156 37.4462 7.875 36.75 7.875H5.25Z" fill="#C5528B"/>
<path d="M34.8134 18.0133C34.219 17.7009 33.5258 17.6339 32.8826 17.8267C32.8513 17.1724 32.5693 16.5554 32.0952 16.1034C31.6212 15.6515 30.9913 15.3994 30.3363 15.3994C29.6814 15.3994 29.0515 15.6515 28.5774 16.1034C28.1034 16.5554 27.8214 17.1724 27.7901 17.8267C27.1486 17.6335 26.4574 17.694 25.8593 17.9958C25.4188 18.2274 25.0557 18.5827 24.8148 19.0181C24.5739 19.4535 24.4656 19.9499 24.5035 20.4461C24.5413 20.9423 24.7235 21.4165 25.0277 21.8104C25.3318 22.2042 25.7446 22.5005 26.2151 22.6625C25.9148 23.0898 25.752 23.5986 25.7484 24.1208C25.751 24.2675 25.7647 24.4137 25.7893 24.5583C25.8875 25.1507 26.1931 25.6889 26.6515 26.0768C27.1099 26.4647 27.6913 26.677 28.2918 26.6758C28.4161 26.6844 28.5408 26.6844 28.6651 26.6758C29.3319 26.5708 29.9308 26.2085 30.3334 25.6667C30.7402 26.1997 31.3386 26.5533 32.0018 26.6525C32.1261 26.661 32.2508 26.661 32.3751 26.6525C32.8407 26.652 33.2972 26.5236 33.6948 26.2815C34.0925 26.0394 34.4161 25.6927 34.6303 25.2793C34.8445 24.866 34.9411 24.4017 34.9097 23.9372C34.8782 23.4727 34.7198 23.0257 34.4518 22.645C34.9245 22.4858 35.34 22.191 35.6466 21.7973C35.9531 21.4037 36.1371 20.9287 36.1756 20.4313C36.2142 19.9339 36.1056 19.4361 35.8634 19C35.6212 18.5638 35.256 18.2085 34.8134 17.9783V18.0133ZM29.3651 16.8817C29.6257 16.6321 29.9726 16.4928 30.3334 16.4928C30.6943 16.4928 31.0412 16.6321 31.3018 16.8817C31.5007 17.0809 31.6358 17.3349 31.6898 17.6113C31.7439 17.8876 31.7144 18.1738 31.6051 18.4333L31.4534 18.7775L31.0684 19.1158C30.8317 19.0346 30.5837 18.9913 30.3334 18.9875C30.01 18.9878 29.6902 19.0554 29.3943 19.1858L29.0676 18.4333C28.9544 18.175 28.9222 17.8883 28.9753 17.6113C29.0284 17.3343 29.1643 17.0798 29.3651 16.8817ZM25.8068 20.8717C25.6765 20.5851 25.648 20.2627 25.7258 19.9577C25.8037 19.6528 25.9833 19.3835 26.2349 19.1944C26.4866 19.0053 26.7952 18.9078 27.1098 18.9179C27.4244 18.928 27.7261 19.0452 27.9651 19.25L28.2509 19.5008L28.4551 19.9675C28.1629 20.3585 28.0034 20.8327 28.0001 21.3208C27.9932 21.4082 27.9932 21.496 28.0001 21.5833H27.6793L27.1893 21.63C26.909 21.6596 26.6264 21.6028 26.3793 21.4673C26.1322 21.3317 25.9324 21.1239 25.8068 20.8717ZM29.6568 24.4183C29.5865 24.7297 29.4111 25.0074 29.1601 25.2046C28.9091 25.4019 28.5978 25.5065 28.2786 25.5011C27.9594 25.4956 27.6519 25.3803 27.4078 25.1746C27.1637 24.9689 26.9979 24.6853 26.9384 24.3717C26.9328 24.2901 26.9328 24.2082 26.9384 24.1267C26.9405 23.8896 27.0046 23.6571 27.1244 23.4525C27.2441 23.2478 27.4153 23.078 27.6209 22.96L27.9184 22.75L28.4493 22.6917C28.7838 23.1571 29.278 23.4831 29.8376 23.6075L29.6568 24.4183ZM30.3334 22.4875C30.1027 22.4875 29.8771 22.4191 29.6853 22.2909C29.4934 22.1627 29.3439 21.9805 29.2556 21.7673C29.1673 21.5541 29.1442 21.3195 29.1892 21.0932C29.2342 20.8669 29.3453 20.659 29.5085 20.4959C29.6716 20.3327 29.8795 20.2216 30.1058 20.1766C30.3321 20.1316 30.5667 20.1547 30.7799 20.243C30.9931 20.3313 31.1753 20.4808 31.3035 20.6727C31.4317 20.8645 31.5001 21.0901 31.5001 21.3208C31.5001 21.6303 31.3772 21.927 31.1584 22.1458C30.9396 22.3646 30.6428 22.4875 30.3334 22.4875ZM33.7284 24.3658C33.6682 24.7218 33.4707 25.0398 33.1783 25.2515C32.8859 25.4632 32.522 25.5515 32.1651 25.4975C31.8839 25.4579 31.6214 25.3333 31.4129 25.1404C31.2044 24.9476 31.0598 24.6956 30.9984 24.4183L30.9168 24.0683L31.0393 23.5317C31.5774 23.3564 32.0335 22.9915 32.3226 22.505L32.6143 22.68H32.6668L33.0518 22.9075C33.3019 23.0504 33.5014 23.2675 33.6227 23.5288C33.7439 23.7901 33.7809 24.0826 33.7284 24.3658ZM34.8601 20.8658C34.7454 21.0977 34.5684 21.2931 34.3489 21.4301C34.1295 21.5671 33.8763 21.6404 33.6176 21.6417H33.4776L33.1043 21.5833L32.6668 21.3442C32.6659 20.777 32.4586 20.2295 32.0834 19.8042L32.3343 19.5883L32.7018 19.25C32.9414 19.0369 33.2477 18.9138 33.5682 18.9017C33.8886 18.8896 34.2033 18.9893 34.4583 19.1837C34.7134 19.3781 34.8929 19.6551 34.9662 19.9673C35.0395 20.2795 35.002 20.6074 34.8601 20.895V20.8658Z" fill="#C5528B"/>
</svg>

<svg width="42" height="42" fill="none" xmlns="http://www.w3.org/2000/svg"><path d="M21 11.813a1.313 1.313 0 00-2.625 0v18.374a1.313 1.313 0 002.625 0V11.813zM6.562 13.124a1.313 1.313 0 000 2.625h7.875a1.313 1.313 0 000-2.625H6.564zm0 5.25a1.313 1.313 0 000 2.625h7.875a1.313 1.313 0 000-2.625H6.564zm0 5.25a1.313 1.313 0 000 2.625h7.875a1.313 1.313 0 000-2.625H6.564z" fill="#C5528B"/><path fill-rule="evenodd" clip-rule="evenodd" d="M0 10.5a5.25 5.25 0 015.25-5.25h31.5A5.25 5.25 0 0142 10.5v21a5.25 5.25 0 01-5.25 5.25H5.25A5.25 5.25 0 010 31.5v-21zm5.25-2.625A2.625 2.625 0 002.625 10.5v21a2.625 2.625 0 002.625 2.625h31.5a2.625 2.625 0 002.625-2.625v-21a2.625 2.625 0 00-2.625-2.625H5.25z" fill="#C5528B"/><path d="M34.813 18.013a2.566 2.566 0 00-1.93-.186 2.55 2.55 0 00-5.093 0 2.613 2.613 0 00-1.93.169 2.55 2.55 0 00.355 4.667c-.3.427-.463.936-.467 1.458.003.146.017.293.041.437a2.532 2.532 0 002.503 2.118c.124.008.249.008.373 0a2.578 2.578 0 001.668-1.01 2.579 2.579 0 001.669.986c.124.009.249.009.373 0a2.543 2.543 0 002.077-4.007 2.543 2.543 0 00.361-4.667v.035zm-5.448-1.131a1.4 1.4 0 011.937 0 1.417 1.417 0 01.303 1.551l-.152.345-.385.338a2.376 2.376 0 00-.735-.128 2.32 2.32 0 00-.939.198l-.326-.753a1.394 1.394 0 01.297-1.551zm-3.558 3.99a1.383 1.383 0 012.158-1.622l.286.25.204.468A2.287 2.287 0 0028 21.32a1.667 1.667 0 000 .262h-.32l-.49.047a1.383 1.383 0 01-1.383-.758zm3.85 3.546a1.389 1.389 0 01-2.719-.046 1.789 1.789 0 010-.245 1.358 1.358 0 01.683-1.167l.297-.21.531-.058a2.34 2.34 0 001.389.916l-.181.81zm.676-1.93a1.166 1.166 0 110-2.333 1.166 1.166 0 010 2.332zm3.395 1.878a1.377 1.377 0 01-1.563 1.131 1.394 1.394 0 01-1.167-1.079l-.081-.35.122-.536a2.34 2.34 0 001.284-1.027l.291.175h.053l.385.227a1.39 1.39 0 01.676 1.459zm1.132-3.5a1.393 1.393 0 01-1.242.776h-.14l-.374-.059-.437-.239a2.332 2.332 0 00-.584-1.54l.251-.216.368-.338a1.382 1.382 0 012.158 1.645v-.03z" fill="#C5528B"/></svg>
